X:1
T:Diadema, 11.10.11.6
T:Diadema, 11.10.11.6
T:Joseph Barnby, 1883
T:Public Domain Courtesy of the Cyber Hymnal™
C:Joseph Barnby, 1883
Z:Public Domain
Z:Courtesy of the Cyber Hymnal™
%%score ( 1 2 ) ( 3 4 )
L:1/8
Q:1/4=112
M:4/4
K:Eb
V:1 treble 
V:2 treble 
V:3 bass 
V:4 bass 
V:1
 [EG]4 [GB]2 [Ge]2 | [Ad]6 [Dc]2 | [EB]2 [EG]2 E2 [DF]2 | [DF]4 [EG]4 | [EA]4 [=EA]2 [EG]2 | %5
 [Fc]6 [GB]2 | [CB]2 [CA]2 C2 [CG]2 | [DF]8 | [_DG]4 [DF]2 [DE]2 | [Cc]6 [=Ec]2 | %10
 [Fc]2 [Gc]2 [=Af]2 [Ae]2 | [Ae]4 [Ad]4 | [Ge]4 [EG]2 [_DB]2 | [CE]6 [EF]2 | [EG]8 |] %15
V:2
 x8 | x8 | x4 E2 x2 | x8 | x8 | x8 | x8 | x8 | x8 | x8 | x8 | x8 | x8 | x8 | x8 |] %15
V:3
 [E,B,]4 [E,B,]2 [E,B,]2 | [F,B,]6 [F,A,]2 | [G,B,]2 [G,B,]2 [A,C]2 [A,_C]2 | [A,_C]4 B,4 | %4
 [C,A,]4 C2 [B,C]2 | [A,C]6 [=E,C]2 | [F,C]2 [F,C]2 [A,,A,]2 [A,,A,]2 | [B,,A,]8 | %8
 [E,B,]4 [E,A,]2 [E,G,]2 | A,6 [G,B,]2 | [F,=A,]2 [F,B,]2 [F,C]2 [F,F]2 | [B,F]4 [B,,F]4 | %12
 [C,E]4 [B,,_D]2 [G,,B,]2 | (B,4 A,2) [A,,C]2 | [E,B,]8 |] %15
V:4
 x8 | x8 | x8 | x4 (E,2 D,2) | x4 C2 x2 | x8 | x8 | x8 | x8 | A,6 x2 | x8 | x8 | x8 | A,,6 x2 | %14
 x8 |] %15

